X:1
T:Title
%%score { 1 | 2 }
L:1/8
Q:1/4=86
M:4/4
K:G
V:1 treble nm="Grand Piano"
V:2 bass 
V:1
 [B,D][B,D][DB][Ec] B3 A | DDAB [B,G]4 |[M:2/4] [CE][EG] [Ec][Ge] |[M:1/4] dB | GE | %5
w: Benj.~A.~Baur * * * * *|||||
[M:4/4] [^CA]2 [CB]2 [=CA]4 | [B,D][B,D][DB][Ec] B3 A | DDAB [B,G]4 |[M:2/4] [CE][EG] [Ec][Ge] | %9
w: ||||
[M:1/4] dB | de |[M:4/4] [DGB]2 [CFA]2 [G,B,DG]4 |] %12
w: |||
V:2
 [G,,G,][G,,G,][G,,G,][G,,G,] [D,G,D]3 [D,F,C] | [D,F,C][D,F,C][D,F,C][D,F,D] [G,,G,]4 | %2
[M:2/4] [C,G,][C,G,] [C,G,][C,C] |[M:1/4][K:treble] [G,B,G][G,DG] | [G,B,D][G,B,] | %5
[M:4/4] [A,,A,]2 [A,,G,]2 [D,F,]4 | [G,,G,][G,,G,][G,,G,][G,,G,] [D,G,D]3 [D,F,C] | %7
 [D,F,C][D,F,C][D,F,C][D,F,D] [G,,G,]4 |[M:2/4] [C,G,][C,G,] [C,G,][C,C] | %9
[M:1/4][K:treble] [G,B,G][G,DG] | [B,DG]G |[M:4/4][K:bass] D,2 D,2 G,,4 |] %12

